T: Trip To Nenagh, The
M: 4/4
L: 1/8
K: Dmix
d2AG FDDF | A,DFA d^cAG | Ad~d2 d=fed | c2Gc EcGc |
d^cAG FDDF | A,DFA d^cAG | Ad~d2 AdFA |1 GFEG FDD2 :|2 GFEG FDFA |
: d2fd adfd | gfed ^cABc | d2AG FADF | (3EFG AB c2Bc |
Ad~d2 Adfd | (3B^cd ef  g2fg |a2ea ^caec |1 d^cAB FDFA :|2 d^cAB FDD2 ||
